X:220
T: Abschied beim Wegzuge
N: A0267
O: Europa, Mitteleuropa, Deutschland
N: M Franck Fasc. quodl. 1611 No. 6.
R: Romanze, Ballade, Lied
M: 4/4
L: 1/8
K: D
D2 | D3E=F2E2 | D4=C2
A,2 | D2E2=F2ED | E4z2
D2 | E2=F2G2E2 | =F4E2
D2 | C2D2D2C2 | D4z2

